src/assets/img/icons/payment_system/advcash.svg

<svg width="58" height="16" viewBox="0 0 58 16" fill="none" xmlns="http://www.w3.org/2000/svg">
<g clip-path="url(#clip0_355_857)">
<path d="M3.6594 10.7987C3.19736 11.208 2.6033 11.4456 1.99604 11.4456C0.966334 11.5248 0.0686447 10.7459 0.00263811 9.71624C0.00263811 9.66343 0.00263811 9.59743 0.00263811 9.54462C-0.0369658 8.84495 0.372274 8.19809 1.03234 7.94726C1.52079 7.73604 2.03564 7.61723 2.5769 7.57762L3.6066 7.49842V7.27399C3.6066 6.61393 3.17095 6.3235 2.43168 6.3235C1.89043 6.3499 1.36237 6.49512 0.887126 6.75914L0.372274 5.80865C1.07194 5.42581 1.85082 5.22779 2.6429 5.21459C4.24026 5.21459 4.99274 5.94066 4.99274 7.34V9.76904C4.95313 10.2839 5.00594 10.8119 5.13795 11.3136H3.88383L3.6594 10.7987ZM2.69571 8.59413C2.39208 8.58092 2.07524 8.66013 1.81122 8.81855C1.5868 8.96376 1.44158 9.21459 1.44158 9.47861C1.44158 9.91426 1.79802 10.2839 2.23366 10.2839C2.26006 10.2839 2.28647 10.2839 2.31287 10.2839C2.74851 10.2707 3.15775 10.1123 3.48779 9.84825V8.59413H2.69571ZM5.85082 8.43571C5.85082 6.53472 7.25016 5.28059 9.07194 5.28059C9.33597 5.26739 9.6132 5.2938 9.87722 5.3466V2.49512H11.3426V11.076C10.6429 11.3796 9.90363 11.5248 9.13795 11.5116C7.31617 11.4456 5.85082 10.4291 5.85082 8.43571ZM9.89043 10.1255V6.60073C9.6528 6.53472 9.40198 6.50832 9.16435 6.53472C8.17425 6.50832 7.35577 7.2872 7.32937 8.2773C7.32937 8.3301 7.32937 8.3829 7.32937 8.44891C7.25016 9.3862 7.93663 10.2047 8.87392 10.2839C8.96633 10.2971 9.07194 10.2971 9.16435 10.2839C9.37557 10.2047 9.666 10.2047 9.89043 10.1255ZM11.8706 5.43901H13.4152L14.8805 9.47861L16.3459 5.45221H17.8112L15.3954 11.3928H14.2997L11.8706 5.43901Z" fill="#333D48"/>
<path d="M18.0224 8.43564C17.9828 6.73267 19.3293 5.32013 21.0323 5.28053C21.0719 5.28053 21.1115 5.28053 21.1511 5.28053C21.7056 5.29373 22.2468 5.41254 22.7485 5.65016V6.89109C22.3128 6.58746 21.8112 6.44224 21.2831 6.45545C20.1874 6.45545 19.5273 7.26073 19.5273 8.35643C19.5273 9.59736 20.1874 10.2574 21.2171 10.2574C21.7056 10.2574 22.1808 10.1386 22.6164 9.88779L23.0521 10.9175C22.4316 11.3003 21.7188 11.4983 20.9927 11.4983C19.3689 11.5248 18.0356 10.2178 18.0092 8.59406C18.0224 8.55446 18.0224 8.50165 18.0224 8.43564ZM26.9729 10.7987C26.5108 11.2211 25.9168 11.4587 25.2831 11.4587C24.2534 11.538 23.3557 10.7591 23.2897 9.72937C23.2897 9.67657 23.2897 9.61056 23.2897 9.55776C23.2501 8.85809 23.6593 8.21122 24.3194 7.9604C24.8079 7.74917 25.3227 7.63036 25.864 7.59076L26.8937 7.52475V7.30033C26.8937 6.64026 26.458 6.34983 25.7188 6.34983C25.1775 6.37624 24.6494 6.52145 24.1742 6.78548L23.6858 5.80858C24.3854 5.42574 25.1775 5.22772 25.9696 5.21452C27.5669 5.21452 28.3194 5.94059 28.3194 7.33993V9.76898C28.2798 10.2838 28.3326 10.8119 28.4646 11.3135H27.1973L26.9729 10.7987ZM26.0224 8.59406C25.7188 8.58086 25.4019 8.66007 25.1379 8.81848C24.9135 8.95049 24.7683 9.20132 24.7683 9.46535C24.7683 9.90099 25.1247 10.2706 25.5603 10.2706C25.5867 10.2706 25.6131 10.2706 25.6395 10.2706C26.0752 10.2574 26.4844 10.099 26.8145 9.83498V8.59406C26.8277 8.58086 26.0224 8.59406 26.0224 8.59406ZM29.4679 9.75578C29.9432 10.0726 30.4976 10.2574 31.0653 10.2706C31.6461 10.2706 32.095 10.1254 32.095 9.61056C32.095 8.58086 29.2963 8.95049 29.2963 7.04951C29.2963 6.0198 30.1808 5.29373 31.5669 5.29373C32.161 5.30693 32.7551 5.39934 33.3227 5.58416V6.82508C32.7947 6.58746 32.2138 6.46865 31.6329 6.45545C31.1181 6.45545 30.8277 6.60066 30.8277 6.9703C30.8277 7.92079 33.6263 7.55115 33.6263 9.61056C33.6263 10.9307 32.5306 11.4455 31.2105 11.4455C30.4448 11.4455 29.6791 11.2475 29.0059 10.8515C29.0191 10.8515 29.4679 9.75578 29.4679 9.75578ZM34.458 2.49505H35.9234V6.09901C36.4778 5.61056 37.1775 5.33333 37.9168 5.29373C38.8673 5.29373 39.8178 5.72937 39.8178 7.41914V11.3003H38.3524V7.84158C38.3524 7.11551 38.2072 6.52145 37.4679 6.52145C36.9135 6.56106 36.3854 6.79868 35.9894 7.19472V11.3003H34.524V2.50825L34.458 2.49505ZM49.3491 16C53.7584 16 57.3491 12.4224 57.3491 8C57.3491 3.57756 53.7716 0 49.3491 0C44.9267 0 41.3491 3.57756 41.3491 8C41.3491 12.4224 44.9267 16 49.3491 16Z" fill="#333D48"/>
<path d="M45.0851 12.2509L49.1907 3.23438L49.4812 6.38949L46.7617 12.1849L45.0851 12.2509Z" fill="#161C24"/>
<path d="M45.3888 8.43576H53.1644L52.2799 9.53147H46.1149C46.1149 9.54468 45.3888 8.43576 45.3888 8.43576ZM44.0687 6.45557H54.3393L53.4548 7.55128H44.8079C44.7947 7.56448 44.0687 6.45557 44.0687 6.45557Z" fill="#212B36"/>
<path d="M53.2964 12.2509L49.1908 3.23438L48.9003 6.38949L51.6066 12.1849L53.2964 12.2509Z" fill="#161C24"/>
</g>
<defs>
<clipPath id="clip0_355_857">
<rect width="57.6" height="16" fill="white"/>
</clipPath>
</defs>
</svg>

<svg width="58" height="16" fill="none" xmlns="http://www.w3.org/2000/svg"><g clip-path="url(#a)"><path d="M3.66 10.799a2.527 2.527 0 0 1-1.664.647c-1.03.079-1.927-.7-1.993-1.73v-.171c-.04-.7.37-1.347 1.03-1.598a4.726 4.726 0 0 1 1.544-.37l1.03-.079v-.224c0-.66-.436-.95-1.175-.95a3.527 3.527 0 0 0-1.545.435l-.515-.95c.7-.383 1.479-.581 2.27-.594 1.598 0 2.35.726 2.35 2.125v2.429c-.039.515.014 1.043.146 1.545H3.884l-.225-.515Zm-.964-2.205a1.61 1.61 0 0 0-.885.225.8.8 0 0 0-.37.66c0 .435.357.805.793.805h.079a1.976 1.976 0 0 0 1.175-.436V8.594h-.792Zm3.155-.158c0-1.901 1.4-3.155 3.22-3.155a3.32 3.32 0 0 1 .806.066V2.495h1.466v8.581c-.7.304-1.44.449-2.205.436-1.822-.066-3.287-1.083-3.287-3.076Zm4.04 1.69V6.6a1.942 1.942 0 0 0-.727-.066A1.787 1.787 0 0 0 7.33 8.277v.172a1.691 1.691 0 0 0 1.545 1.835c.092.013.198.013.29 0 .212-.08.502-.08.726-.159Zm1.98-4.687h1.544l1.466 4.04 1.465-4.027h1.465l-2.416 5.94H14.3L11.87 5.44ZM18.022 8.436a3.083 3.083 0 0 1 3.01-3.155h.12a3.93 3.93 0 0 1 1.596.37v1.24a2.422 2.422 0 0 0-1.465-.436c-1.096 0-1.756.806-1.756 1.901 0 1.241.66 1.901 1.69 1.901.489 0 .964-.118 1.4-.37l.435 1.03c-.62.383-1.333.581-2.06.581-1.623.027-2.956-1.28-2.983-2.904.013-.04.013-.092.013-.158Zm8.95 2.363a2.492 2.492 0 0 1-1.689.66c-1.03.079-1.927-.7-1.993-1.73v-.171c-.04-.7.37-1.347 1.03-1.598a4.725 4.725 0 0 1 1.544-.37l1.03-.065V7.3c0-.66-.436-.95-1.175-.95a3.527 3.527 0 0 0-1.545.435l-.488-.976c.7-.383 1.491-.581 2.284-.594 1.597 0 2.35.726 2.35 2.125v2.429c-.04.515.013 1.043.145 1.544h-1.268l-.224-.514Zm-.95-2.205a1.61 1.61 0 0 0-.884.224.76.76 0 0 0-.37.647c0 .436.357.806.792.806h.08a1.976 1.976 0 0 0 1.174-.436v-1.24c.014-.014-.792 0-.792 0Zm3.446 1.162c.475.317 1.03.501 1.597.515.581 0 1.03-.146 1.03-.66 0-1.03-2.799-.66-2.799-2.561 0-1.03.885-1.756 2.27-1.756a6.112 6.112 0 0 1 1.757.29v1.241a4.37 4.37 0 0 0-1.69-.37c-.515 0-.805.146-.805.515 0 .95 2.798.581 2.798 2.64 0 1.32-1.095 1.835-2.415 1.835a4.352 4.352 0 0 1-2.205-.594c.013 0 .462-1.095.462-1.095Zm4.99-7.261h1.465V6.1a3.265 3.265 0 0 1 1.994-.805c.95 0 1.9.435 1.9 2.125V11.3h-1.465V7.842c0-.726-.145-1.32-.884-1.32a2.329 2.329 0 0 0-1.479.673V11.3h-1.465V2.508l-.066-.013ZM49.349 16c4.41 0 8-3.578 8-8 0-4.422-3.577-8-8-8-4.422 0-8 3.578-8 8 0 4.422 3.578 8 8 8Z" fill="#333D48"/><path d="m45.085 12.25 4.106-9.016.29 3.155-2.72 5.796-1.676.066Z" fill="#161C24"/><path d="M45.389 8.436h7.775L52.28 9.53h-6.165c0 .014-.726-1.095-.726-1.095Zm-1.32-1.98h10.27l-.884 1.095h-8.647c-.013.013-.74-1.095-.74-1.095Z" fill="#212B36"/><path d="m53.296 12.25-4.105-9.016-.29 3.155 2.706 5.796 1.69.066Z" fill="#161C24"/></g><defs><clipPath id="a"><path fill="#fff" d="M0 0h57.6v16H0z"/></clipPath></defs></svg>
